X: 29677
T: Not Basingstoke
R: reel
M: 4/4
K: Gmajor
|:G3F EDEF|GABc B2A2|G3F EDEF|GABc d4:|
|:e3d cBce|d2Bc A4|G3F EDEF|GABc d4:|

